icons/label-chevron-down.svg

<svg xmlns="http://www.w3.org/2000/svg" width="24" height="24" viewBox="0 0 24 24">
  <path d="M15.0924635,4 C15.6691887,4 16.2178408,4.24896086 16.5976169,4.68299078 L21.8476169,10.6829908 C22.5074124,11.4370428 22.5074124,12.5629572 21.8476169,13.3170092 L16.5976169,19.3170092 C16.2178408,19.7510391 15.6691887,20 15.0924635,20 L4,20 C2.8954305,20 2,19.1045695 2,18 L2,6 C2,4.8954305 2.8954305,4 4,4 L15.0924635,4 Z M6.38710056,9.70970461 L6.29289322,9.79289322 C5.93240926,10.1533772 5.90467972,10.7206082 6.20970461,11.1128994 L6.29289322,11.2071068 L9.29289322,14.2071068 C9.65337718,14.5675907 10.2206082,14.5953203 10.6128994,14.2902954 L10.7071068,14.2071068 L13.7071068,11.2071068 C14.0976311,10.8165825 14.0976311,10.1834175 13.7071068,9.79289322 C13.3466228,9.43240926 12.7793918,9.40467972 12.3871006,9.70970461 L12.2928932,9.79289322 L10,12.085 L7.70710678,9.79289322 C7.34662282,9.43240926 6.77939176,9.40467972 6.38710056,9.70970461 Z"/>
</svg>

<svg xmlns="http://www.w3.org/2000/svg" viewBox="0 0 24 24">
  <path d="M15.1 4a2 2 0 0 1 1.5.68l5.25 6a2 2 0 0 1 0 2.64l-5.25 6a2 2 0 0 1-1.5.68H4a2 2 0 0 1-2-2V6c0-1.1.9-2 2-2h11.1zM6.38 9.71l-.1.08a1 1 0 0 0-.08 1.32l.08.1 3 3a1 1 0 0 0 1.32.08l.1-.08 3-3a1 1 0 0 0-1.32-1.5l-.1.08L10 12.1 7.7 9.8a1 1 0 0 0-1.31-.08z"/>
</svg>
